X: 33498
T: Raheen, The
R: reel
M: 4/4
K: Adorian
|:AB|cABG A2 AB|cABG AGED|G2 GF GABc|dBGB d2 dB|
cABG A2 AB|cABG AGEG|edef gage|dBGB A2:|
|:(3Bcd|eaag a2 ag|edef gedg|edef g2 gf|edef gedg|
eaag a2 ag|edef gedg|edef gage|dBGB A2:|

